X:1
T: House of Craig
C:Alexander Walker
R:Reel
Q: 232
K:D
M:4/4
L:1/8
|:A|D2 F1/2E1/2D B,D A,D|D2 F1/2E1/2D AD BD|cD dD ED B,B|Ad ce fd dA|
D2 F1/2E1/2D B,D A,D|D2 F1/2E1/2D AD BD|cD dD ED B,B|Ad ce fd dg|
fd ad fa da|ge be gb eg|fd ad fa da|gb eg fd dg|
fd ad fa da|ge be gb eg|fa ef de Bd|Ge Aa fd d:|
